X: 11791
Q: "Moderate."
M: C
L: 1/16
K: G
d3c |\
d4 BcdB G4 c2e2 | d4 BcdB G6 A2 |\
d2B2B2B2 B4 edcB |
c2A2A2A2 A4 dcBA |\
d2B2B2B2 B4 edcB | c2A2A2A2 A4f4 |\
gd3d3e d2B2 dcBA | G8 z4 |]


